X: 19842
T: Jersey Lightning
R: reel
M: 4/4
K: Aminor
|:ABcd ea2e|fedf ea2e|fedf edce|dcBd c/B/A G2|
ABcd ea2e|fedf ea2e|fedf edce|1 dcBc A2E2:|2 dcBc A2ef||
K: Cmaj
|:g^fag ecce|g^fag ecc2|GABc defg|ecdB cdef|
g^fag ecce|g^fag ecc2|GABc defg|1 ecdB c2ef:|2 ecdB c2B2||

